src/assets/images/homepage/home/partner_logo_15.svg

<svg fill="none" height="89" viewBox="0 0 89 89" width="89" xmlns="http://www.w3.org/2000/svg" xmlns:xlink="http://www.w3.org/1999/xlink"><clipPath id="a"><path d="m0 0h88.45v88.2901h-88.45z"/></clipPath><g clip-path="url(#a)"><path d="m18.3836 41.9645c0-.4943.0945-.9814.2908-1.4393.189-.458.4652-.8723.8141-1.2212s.7633-.6251 1.2212-.8141c.458-.189.945-.2835 1.4393-.2835l6.2441.0218c.9959 0 1.9481.3925 2.6532 1.0976s1.0977 1.6573 1.0977 2.6532v23.6099c.7051-.2108 1.6064-.4288 2.595-.6614.6833-.16 1.3012-.5525 1.7373-1.1049.4362-.5525.676-1.2358.676-1.9409v-29.2871c0-.9958.3926-1.9481 1.0977-2.6532s1.6573-1.0976 2.6532-1.0976h6.2586c.9959 0 1.9482.3925 2.6533 1.0976s1.0976 1.6574 1.0976 2.6532v27.1791s1.5628-.6324 3.0893-1.2794c.567-.2398 1.0541-.6396 1.3884-1.1557.3417-.5162.5234-1.1122.5234-1.7301v-32.3837c0-.9958.3925-1.9481 1.0976-2.6532s1.6574-1.0976 2.6532-1.0976h6.2587c.9959 0 1.9481.3925 2.6532 1.0976s1.0976 1.6574 1.0976 2.6532v26.6848c5.4228-3.9326 10.9182-8.6575 15.2869-14.3419.6324-.8287 1.054-1.7955 1.2212-2.8204s.08-2.079-.2617-3.0603c-2.0208-5.808-5.2264-11.1362-9.4207-15.6285-4.1943-4.49952-9.2826-8.06864-14.9379-10.48924-5.6481-2.42786-11.7468-3.6417986-17.8965-3.56910793-6.1496.07269063-12.2193 1.43200793-17.8165 3.98344793-5.5971 2.55144-10.5982 6.2441-14.6835 10.8382-4.08518 4.594-7.16726 9.9949-9.04995 15.8538-1.882689 5.8589-2.515098 12.0449-1.868151 18.1581.646947 6.1133 2.565981 12.0303 5.626261 17.3658.53064.9232 1.3157 1.6719 2.26068 2.159.94497.487 2.00626.6978 3.06756.6033 1.1848-.1018 2.6532-.2544 4.405-.458.7633-.0872 1.4684-.4506 1.9772-1.0249.5089-.5743.7924-1.3157.7924-2.079v-23.4354z" fill="#21325b"/><path d="m18.2451 79.8361c6.5931 4.7976 14.3855 7.6762 22.5196 8.3231 8.1268.6397 16.2827-.974 23.5445-4.674 7.2691-3.6999 13.3678-9.3407 17.6275-16.2972s6.5131-14.9525 6.5131-23.1084c0-1.0177-.0437-2.0208-.1163-3.0239-16.1519 24.0896-45.9696 35.3494-70.0884 38.7804z" fill="#979695"/></g></svg>

<svg width="89" height="89" viewBox="0 0 89 89" fill="none" xmlns="http://www.w3.org/2000/svg">
<g clip-path="url(#clip0_5626_12357)">
<path d="M18.3836 41.9645C18.3836 41.4702 18.4781 40.9831 18.6744 40.5252C18.8634 40.0672 19.1396 39.6529 19.4885 39.304C19.8374 38.9551 20.2518 38.6789 20.7097 38.4899C21.1677 38.3009 21.6547 38.2064 22.149 38.2064L28.3931 38.2282C29.389 38.2282 30.3412 38.6207 31.0463 39.3258C31.7514 40.0309 32.144 40.9831 32.144 41.979V65.5889C32.8491 65.3781 33.7504 65.1601 34.739 64.9275C35.4223 64.7675 36.0402 64.375 36.4763 63.8226C36.9125 63.2701 37.1523 62.5868 37.1523 61.8817V32.5946C37.1523 31.5988 37.5449 30.6465 38.25 29.9414C38.9551 29.2363 39.9073 28.8438 40.9032 28.8438H47.1618C48.1577 28.8438 49.11 29.2363 49.8151 29.9414C50.5202 30.6465 50.9127 31.5988 50.9127 32.5946V59.7737C50.9127 59.7737 52.4755 59.1413 54.002 58.4943C54.569 58.2545 55.0561 57.8547 55.3904 57.3386C55.7321 56.8224 55.9138 56.2264 55.9138 55.6085V23.2248C55.9138 22.229 56.3063 21.2767 57.0114 20.5716C57.7165 19.8665 58.6688 19.474 59.6646 19.474H65.9233C66.9192 19.474 67.8714 19.8665 68.5765 20.5716C69.2816 21.2767 69.6741 22.229 69.6741 23.2248V49.9096C75.0969 45.977 80.5923 41.2521 84.961 35.5677C85.5934 34.739 86.015 33.7722 86.1822 32.7473C86.3494 31.7224 86.2622 30.6683 85.9205 29.687C83.8997 23.879 80.6941 18.5508 76.4998 14.0585C72.3055 9.55898 67.2172 5.98986 61.5619 3.56926C55.9138 1.1414 49.8151 -0.0725386 43.6654 0.000152066C37.5158 0.0728427 31.4461 1.43216 25.8489 3.9836C20.2518 6.53504 15.2507 10.2277 11.1654 14.8218C7.08022 19.4158 3.99814 24.8167 2.11545 30.6756C0.232761 36.5345 -0.399648 42.7205 0.247299 48.8337C0.894246 54.947 2.81328 60.864 5.87356 66.1995C6.4042 67.1227 7.18926 67.8714 8.13424 68.3585C9.07921 68.8455 10.1405 69.0563 11.2018 68.9618C12.3866 68.86 13.855 68.7074 15.6068 68.5038C16.3701 68.4166 17.0752 68.0532 17.584 67.4789C18.0929 66.9046 18.3764 66.1632 18.3764 65.3999V41.9645H18.3836Z" fill="#21325B"/>
<path d="M18.2451 79.8361C24.8382 84.6337 32.6306 87.5123 40.7647 88.1592C48.8915 88.7989 57.0474 87.1852 64.3092 83.4852C71.5783 79.7853 77.677 74.1445 81.9367 67.188C86.1964 60.2315 88.4498 52.2355 88.4498 44.0796C88.4498 43.0619 88.4061 42.0588 88.3335 41.0557C72.1816 65.1453 42.3639 76.4051 18.2451 79.8361Z" fill="#979695"/>
</g>
<defs>
<clipPath id="clip0_5626_12357">
<rect width="88.45" height="88.2901" fill="white"/>
</clipPath>
</defs>
</svg>
